app/themes/uggwc_pro/assets/images/thema/Literatur.svg

<svg width="16" height="16" viewBox="0 0 16 16" fill="none" xmlns="http://www.w3.org/2000/svg">
<path d="M15 11.25V0.75C15 0.334375 14.6656 0 14.25 0H4C2.34375 0 1 1.34375 1 3V13C1 14.6562 2.34375 16 4 16H14.25C14.6656 16 15 15.6656 15 15.25V14.75C15 14.5156 14.8906 14.3031 14.7219 14.1656C14.5906 13.6844 14.5906 12.3125 14.7219 11.8313C14.8906 11.6969 15 11.4844 15 11.25ZM5 4.1875C5 4.08437 5.08437 4 5.1875 4H11.8125C11.9156 4 12 4.08437 12 4.1875V4.8125C12 4.91563 11.9156 5 11.8125 5H5.1875C5.08437 5 5 4.91563 5 4.8125V4.1875ZM5 6.1875C5 6.08437 5.08437 6 5.1875 6H11.8125C11.9156 6 12 6.08437 12 6.1875V6.8125C12 6.91563 11.9156 7 11.8125 7H5.1875C5.08437 7 5 6.91563 5 6.8125V6.1875ZM12.9187 14H4C3.44688 14 3 13.5531 3 13C3 12.45 3.45 12 4 12H12.9187C12.8594 12.5344 12.8594 13.4656 12.9187 14Z" fill="#6E6CFF"/>
</svg>

<svg width="16" height="16" fill="none" xmlns="http://www.w3.org/2000/svg"><path d="M15 11.25V.75a.748.748 0 0 0-.75-.75H4a3 3 0 0 0-3 3v10a3 3 0 0 0 3 3h10.25c.416 0 .75-.334.75-.75v-.5a.756.756 0 0 0-.278-.584c-.131-.482-.131-1.854 0-2.335A.745.745 0 0 0 15 11.25zM5 4.187C5 4.085 5.084 4 5.188 4h6.625c.103 0 .187.084.187.188v.625a.188.188 0 0 1-.188.187H5.189A.188.188 0 0 1 5 4.812v-.625zm0 2C5 6.085 5.084 6 5.188 6h6.625c.103 0 .187.084.187.188v.625a.188.188 0 0 1-.188.187H5.189A.188.188 0 0 1 5 6.812v-.625zM12.919 14H4a.999.999 0 1 1 0-2h8.919c-.06.534-.06 1.466 0 2z" fill="#6E6CFF"/></svg>
